src/assets/icons/Values__together.svg

<svg width="31" height="20" viewBox="0 0 31 20" fill="none" xmlns="http://www.w3.org/2000/svg">
<path d="M20.6162 0.690552H16.6993C16.3345 0.690552 15.9834 0.83616 15.7144 1.09825L11.2321 5.46648C11.2275 5.47134 11.223 5.48105 11.2184 5.4859C10.4615 6.24306 10.4752 7.4516 11.1226 8.20391C11.7017 8.87856 12.9192 9.05814 13.6807 8.33496C13.6853 8.3301 13.6944 8.3301 13.6989 8.32525L17.3422 4.77242C17.6386 4.48606 18.1037 4.50547 18.3727 4.82096C18.6463 5.13644 18.6235 5.62665 18.3271 5.91787L17.137 7.07788L23.7761 12.8148C23.9083 12.9313 24.0269 13.0575 24.1363 13.1885V3.79685L21.6467 1.14679C21.3777 0.855574 21.0037 0.690552 20.6162 0.690552ZM25.6 3.80656V14.6737C25.6 15.5328 26.2521 16.2269 27.0592 16.2269H29.9775V3.80656H25.6ZM27.7887 14.6737C27.3875 14.6737 27.0592 14.3243 27.0592 13.8972C27.0592 13.4701 27.3875 13.1206 27.7887 13.1206C28.19 13.1206 28.5183 13.4701 28.5183 13.8972C28.5183 14.3243 28.19 14.6737 27.7887 14.6737ZM0.794678 16.222H3.71295C4.52004 16.222 5.17209 15.528 5.17209 14.6689V3.80656H0.794678V16.222ZM2.98339 13.1206C3.38465 13.1206 3.71295 13.4701 3.71295 13.8972C3.71295 14.3243 3.38465 14.6737 2.98339 14.6737C2.58212 14.6737 2.25382 14.3243 2.25382 13.8972C2.25382 13.4652 2.58212 13.1206 2.98339 13.1206ZM22.8596 14.0234L16.0518 8.14081L14.6839 9.47555C13.3296 10.7909 11.2549 10.6647 10.0465 9.26199C8.81994 7.83504 8.9157 5.62665 10.2472 4.32589L13.9771 0.690552H10.156C9.76838 0.690552 9.39904 0.855574 9.12545 1.14679L6.63123 3.79685V14.664H7.46568L11.5923 18.6391C12.8417 19.7215 14.6793 19.5176 15.6961 18.1877L15.7053 18.178L16.5215 18.9303C17.2465 19.5613 18.318 19.44 18.9062 18.6683L20.338 16.7948L20.5842 17.0083C21.2089 17.5471 22.13 17.45 22.6362 16.7802L23.0693 16.2123C23.58 15.5425 23.4843 14.567 22.8596 14.0234Z" fill="url(#paint0_linear_17_144)" stroke="white" stroke-width="0.5"/>
<defs>
<linearGradient id="paint0_linear_17_144" x1="3.49976" y1="-0.999879" x2="36.4998" y2="15.5001" gradientUnits="userSpaceOnUse">
<stop stop-color="#C54A92"/>
<stop offset="1" stop-color="#2E62EB"/>
</linearGradient>
</defs>
</svg>

<svg width="31" height="20" fill="none" xmlns="http://www.w3.org/2000/svg"><path d="M20.616.69H16.7a1.41 1.41 0 0 0-.985.408l-4.482 4.368c-.005.005-.009.015-.014.02-.757.757-.743 1.966-.095 2.718.579.675 1.796.854 2.558.131.004-.005.013-.005.018-.01l3.643-3.553a.702.702 0 0 1 1.03.049.811.811 0 0 1-.045 1.097l-1.19 1.16 6.64 5.737c.131.116.25.242.36.373V3.797l-2.49-2.65a1.406 1.406 0 0 0-1.03-.456ZM25.6 3.808v10.867c0 .859.652 1.553 1.46 1.553h2.918V3.807H25.6Zm2.189 10.867c-.402 0-.73-.35-.73-.777 0-.427.328-.776.73-.776.401 0 .73.35.73.776 0 .427-.329.777-.73.777ZM.795 16.222h2.918c.807 0 1.46-.694 1.46-1.553V3.807H.794v12.415Zm2.188-3.101c.402 0 .73.35.73.776 0 .427-.328.777-.73.777-.4 0-.73-.35-.73-.777 0-.432.33-.776.73-.776Zm19.877.902-6.808-5.882-1.368 1.335c-1.354 1.315-3.43 1.189-4.637-.214-1.227-1.427-1.131-3.635.2-4.936L13.977.69h-3.821c-.388 0-.757.165-1.03.456L6.63 3.797v10.867h.835l4.126 3.975c1.25 1.082 3.087.879 4.104-.451l.01-.01.816.752c.725.631 1.796.51 2.384-.262l1.432-1.873.246.213a1.398 1.398 0 0 0 2.052-.228l.433-.568c.511-.67.415-1.645-.21-2.189Z" fill="url(#a)" stroke="#fff" stroke-width=".5"/><defs><linearGradient id="a" x1="3.5" y1="-1" x2="36.5" y2="15.5" gradientUnits="userSpaceOnUse"><stop stop-color="#C54A92"/><stop offset="1" stop-color="#2E62EB"/></linearGradient></defs></svg>
